svgs/sharp-regular/display.svg

<svg xmlns="http://www.w3.org/2000/svg" viewBox="0 0 576 512"><!--! Font Awesome Pro 6.6.0 by @fontawesome - https://fontawesome.com License - https://fontawesome.com/license (Commercial License) Copyright 2024 Fonticons, Inc. --><path d="M48 48l480 0 0 320L48 368 48 48zM0 416l48 0 163.7 0-8 48L152 464l-24 0 0 48 24 0 72 0 128 0 72 0 24 0 0-48-24 0-51.7 0-8-48L528 416l48 0 0-48 0-320 0-48L528 0 48 0 0 0 0 48 0 368l0 48zm315.7 0l8 48-71.3 0 8-48 55.3 0z"/></svg>

<svg xmlns="http://www.w3.org/2000/svg" viewBox="0 0 576 512"><!--! Font Awesome Pro 6.4.2 by @fontawesome - https://fontawesome.com License - https://fontawesome.com/license (Commercial License) Copyright 2023 Fonticons, Inc. --><path d="M48 48H528V368H48V48zM0 416H48 211.7l-8 48H152 128v48h24 72H352h72 24V464H424 372.3l-8-48H528h48V368 48 0H528 48 0V48 368v48zm315.7 0l8 48H252.3l8-48h55.3z"/></svg>
